X: 21412
M: 3/4
L: 1/16
K: F
|: _e2 |\
d3c B6 c2 | d3c _e4 d2c2 | d2f2 c4 a4 | c'bag f4 z2f2 |\
d3c A6 f2 | dcBA G6 _e2 | d3c f6 A2 | cBAG F6 :|


